lib/logo_tmp/nrk-logo-nrk-trafikk-title-below-on-dark.svg

<svg width="61" height="36" viewBox="0 0 61 36" fill="none" xmlns="http://www.w3.org/2000/svg">
<path d="M0 15.0033V1.00453H4.59339V15.0033H0ZM10.8428 3.2325L13.4844 15.0033H8.45737L5.30307 1.00453H8.12254C8.76907 0.996136 9.39641 1.22405 9.88691 1.64538C10.3782 2.04903 10.7158 2.6094 10.8428 3.2325ZM14.1744 15.0033V1.00453H18.7678V15.0033H14.1744ZM22.2372 6.32804C21.7422 6.33286 21.2552 6.20336 20.828 5.95338C20.4064 5.70973 20.0563 5.35954 19.8127 4.93795C19.5624 4.51064 19.4329 4.02348 19.4378 3.52829C19.4321 3.03613 19.5618 2.55186 19.8127 2.12842C20.0589 1.71141 20.4086 1.36503 20.828 1.12286C21.2553 0.873175 21.7423 0.743689 22.2372 0.748203C22.7292 0.742904 23.2133 0.872505 23.6369 1.12286C24.0521 1.36715 24.3981 1.71324 24.6424 2.12842C24.893 2.55198 25.0226 3.03616 25.0172 3.52829C25.0218 4.02344 24.8923 4.51052 24.6424 4.93795C24.4007 5.35769 24.0542 5.70758 23.6369 5.95338C23.2133 6.20423 22.7289 6.33386 22.2366 6.32804H22.2372ZM25.7269 15.0033V1.00453H30.3207V15.0033H25.7269ZM36.136 8.65453C36.1489 8.66811 36.2475 8.82912 36.4317 9.13757C36.6159 9.44602 36.8558 9.84039 37.1513 10.3206C37.447 10.8006 37.759 11.3099 38.0874 11.8486C38.4157 12.3873 38.7247 12.8967 39.0143 13.3767C39.3028 13.8566 39.6313 14.3988 40 15.0033H34.9531C34.6375 14.4906 34.3515 14.0273 34.0952 13.6132C33.8389 13.1992 33.5665 12.7523 33.2778 12.2725C32.9884 11.7932 32.7024 11.3265 32.4196 10.8726C32.1368 10.4187 31.8938 10.0211 31.6905 9.67982C31.4863 9.33829 31.3449 9.10823 31.2663 8.98971C31.0713 8.69561 30.9559 8.35593 30.9315 8.00389C30.951 7.66601 31.0597 7.33939 31.2466 7.05722C31.3254 6.92577 31.47 6.69242 31.6803 6.35724C31.8906 6.02206 32.137 5.62448 32.4196 5.16443C32.7021 4.70438 32.9882 4.23446 33.2778 3.75469C33.5674 3.27492 33.8398 2.8247 34.0952 2.40408C34.3519 1.9839 34.6379 1.51727 34.9531 1.00421H40L36.0962 7.37267C35.9754 7.56175 35.9073 7.77966 35.8991 8.00389C35.9121 8.2393 35.9942 8.46563 36.1353 8.65453H36.136Z" fill="white"/>
<path d="M11.1376 21.016H0V22.7494H4.53795V35.0012H6.61876V22.7494H11.1373L11.1376 21.016Z" fill="#9FDAF5"/>
<path d="M15.2003 24.8867C14.8298 24.9858 14.4758 25.1384 14.1499 25.3398C13.8119 25.5496 13.4995 25.7975 13.2186 26.0784C13.1717 26.125 13.126 26.1769 13.0798 26.2259V24.7587L11.0584 25.0542V35.0014H13.0798V27.5597C13.2299 27.4554 13.3854 27.3589 13.5455 27.2705C13.7436 27.1617 13.9487 27.0662 14.1595 26.9845C14.3646 26.9057 14.5724 26.8368 14.7842 26.778C15.0016 26.7176 15.2237 26.6747 15.4481 26.6497C15.6882 26.6233 15.9301 26.6167 16.1714 26.63L16.4092 24.7784C16.003 24.7496 15.5948 24.7861 15.2003 24.8867Z" fill="#9FDAF5"/>
<path d="M26.5758 33.7602C26.431 33.7734 26.285 33.7517 26.1505 33.6968C26.0159 33.642 25.8966 33.5556 25.8029 33.445C25.6192 33.1294 25.5427 32.7633 25.5849 32.401L25.6245 28.3433C25.6289 27.918 25.5756 27.4939 25.466 27.0827C25.3698 26.722 25.2087 26.3817 24.9904 26.0781C24.7699 25.7813 24.4898 25.5331 24.168 25.3493C23.794 25.1381 23.3897 24.9853 22.969 24.8963C22.4547 24.7861 21.9295 24.7334 21.4033 24.739C20.986 24.7387 20.5692 24.765 20.1552 24.8175C19.7639 24.8664 19.3764 24.9421 18.9955 25.044C18.6425 25.1392 18.2952 25.2543 17.9554 25.3887L17.7172 27.063C18.0475 26.9448 18.3614 26.8464 18.6586 26.7676C18.9559 26.6888 19.2432 26.6231 19.5207 26.5706C19.7925 26.5188 20.0671 26.4827 20.3431 26.4626C20.6137 26.4426 20.8814 26.4327 21.1461 26.4327C21.5502 26.4241 21.9536 26.4705 22.345 26.5706C22.6305 26.6417 22.893 26.7841 23.1077 26.9842C23.2989 27.179 23.4355 27.42 23.5041 27.6835C23.5889 28.0083 23.629 28.343 23.6233 28.6785L23.621 29.171L21.3043 29.3269C20.512 29.349 19.7315 29.5229 19.0055 29.8391C18.4622 30.0754 17.9932 30.4531 17.6479 30.9323C17.355 31.3587 17.1995 31.8637 17.202 32.38C17.1983 32.8645 17.3176 33.3421 17.5488 33.7687C17.7913 34.2068 18.156 34.566 18.5991 34.8028C19.1398 35.0823 19.744 35.218 20.353 35.1968C20.9238 35.2098 21.4919 35.1162 22.028 34.921C22.4913 34.7408 22.9151 34.4733 23.2762 34.1331C23.4133 34.0024 23.5433 33.8647 23.6659 33.7204C23.7045 33.9243 23.7771 34.1204 23.8806 34.3005C24.0571 34.6021 24.3288 34.8375 24.6535 34.9703C25.0123 35.1135 25.3964 35.1838 25.7831 35.1771C25.902 35.1771 26.0177 35.1738 26.1302 35.1672C26.2404 35.1609 26.3498 35.1444 26.4569 35.118C26.5626 35.0917 26.6581 35.0687 26.7443 35.049C26.8219 35.0318 26.8981 35.0088 26.9722 34.9801L27.1905 33.6604C27.0809 33.6975 26.968 33.7239 26.8532 33.7392C26.7613 33.752 26.6687 33.759 26.5758 33.7602ZM23.6055 32.5635C23.5046 32.6762 23.3941 32.78 23.2752 32.8738C23.0603 33.0426 22.8277 33.1878 22.5816 33.3071C22.3364 33.4257 22.0766 33.5118 21.8089 33.5632C21.5314 33.6165 21.2494 33.6429 20.9668 33.642C20.6437 33.6512 20.3224 33.5907 20.0251 33.4647C19.7833 33.3604 19.5794 33.1852 19.4407 32.9624C19.3033 32.7264 19.2347 32.457 19.2425 32.1844C19.2234 31.856 19.314 31.5305 19.5002 31.2586C19.7159 31.0083 20.0083 30.8353 20.3325 30.7661C20.8388 30.6477 21.3584 30.5948 21.8784 30.6086H23.6137L23.6055 32.5635Z" fill="#9FDAF5"/>
<path d="M34.0369 20.2873C33.8321 20.2479 33.6241 20.2183 33.4127 20.1986C33.2013 20.1789 32.9767 20.1691 32.7388 20.1691C32.3083 20.1663 31.8801 20.2329 31.4709 20.3661C31.0819 20.4932 30.7263 20.7052 30.4304 20.9865C30.124 21.2828 29.8873 21.6427 29.7368 22.0403C29.5616 22.5198 29.4775 23.0274 29.4891 23.5373V24.9556H28.0028V26.492H29.4891V35.0013H31.5105V26.492H34.2849V24.9556H31.5105V23.3207C31.5061 23.096 31.5431 22.8724 31.6195 22.6608C31.6842 22.4821 31.7892 22.3204 31.9263 22.1881C32.07 22.0569 32.2435 21.9623 32.432 21.9123C32.6545 21.851 32.8846 21.8212 33.1154 21.8237C33.2743 21.8237 33.4255 21.8306 33.5715 21.8434C33.7175 21.8562 33.8586 21.8762 33.9976 21.9025C34.1367 21.9287 34.2681 21.955 34.394 21.9812C34.5059 22.0034 34.6154 22.0364 34.721 22.0797L34.6417 20.4449C34.4438 20.3792 34.2417 20.3266 34.0369 20.2873Z" fill="#9FDAF5"/>
<path d="M36.2464 35.0014H38.2678V24.7587L36.2464 25.0542V35.0014Z" fill="#9FDAF5"/>
<path d="M37.9805 20.6318C37.7748 20.5069 37.5378 20.4421 37.2968 20.4447C37.0527 20.4427 36.8127 20.5075 36.6031 20.6318C36.3965 20.7521 36.2229 20.9213 36.0978 21.1242C35.9719 21.3286 35.9067 21.5642 35.9095 21.8038C35.9074 22.0465 35.9725 22.285 36.0978 22.4932C36.219 22.6993 36.3935 22.8693 36.6031 22.9857C36.8148 23.104 37.054 23.1651 37.2968 23.1629C37.5365 23.1658 37.7727 23.1046 37.9805 22.9857C38.1844 22.8684 38.3522 22.6982 38.466 22.4932C38.5851 22.2829 38.6466 22.0452 38.6444 21.8038C38.6473 21.5655 38.5857 21.3308 38.466 21.1242C38.3483 20.9222 38.1813 20.7529 37.9805 20.6318Z" fill="#9FDAF5"/>
<path d="M49.9801 24.9555H47.5029L44.1118 28.6587H43.3808V20.1296L41.3594 20.4251V35.0012H43.3808V30.1754H43.4139L47.463 35.0012H50.0789L45.2718 29.6172L49.9801 24.9555Z" fill="#9FDAF5"/>
<path d="M55.6761 29.5654L60.3844 24.9037H57.9072L54.5161 28.6068H53.7851V20.0781L51.7637 20.3736V34.9498H53.7851V30.1238H53.8181L57.8673 34.9498H60.4832L55.6761 29.5654Z" fill="#9FDAF5"/>
</svg>

<svg xmlns="http://www.w3.org/2000/svg" viewBox="0 0 61 36"><path fill="#fff" d="M0 15.003V1.005h4.593v13.998H0Zm10.843-11.77 2.641 11.77H8.457L5.303 1.005h2.82a2.655 2.655 0 0 1 1.764.64c.491.404.829.964.956 1.587Zm3.331 11.77V1.005h4.594v13.998h-4.594Zm8.063-8.675a2.737 2.737 0 0 1-1.409-.375 2.778 2.778 0 0 1-1.015-1.015 2.735 2.735 0 0 1-.375-1.41 2.685 2.685 0 0 1 .375-1.4 2.812 2.812 0 0 1 3.824-1.005c.415.244.761.59 1.005 1.005.251.424.38.908.375 1.4.005.495-.125.983-.375 1.41a2.8 2.8 0 0 1-1.005 1.015c-.424.251-.908.38-1.4.375Zm3.49 8.675V1.005h4.594v13.998h-4.594Zm10.409-6.348c.013.013.111.174.296.483.184.308.424.702.72 1.183a384.573 384.573 0 0 1 1.862 3.056c.289.48.617 1.022.986 1.626h-5.047l-.858-1.39c-.256-.414-.529-.86-.817-1.34-.29-.48-.576-.947-.858-1.4a71.236 71.236 0 0 1-.73-1.193 21.112 21.112 0 0 0-.424-.69 2.04 2.04 0 0 1-.334-.986c.019-.338.128-.665.315-.947.078-.131.223-.365.433-.7a216.7 216.7 0 0 0 1.598-2.603l.817-1.35.858-1.4H40l-3.904 6.369c-.12.189-.189.407-.197.63.013.236.095.463.236.652h.001Z"/><path fill="#9FDAF5" d="M11.138 21.016H0v1.733h4.538v12.252h2.08V22.75h4.52v-1.733ZM15.2 24.887c-.37.099-.724.251-1.05.453-.338.21-.65.457-.931.738-.047.047-.093.099-.14.148v-1.467l-2.02.295v9.947h2.02V27.56a5.116 5.116 0 0 1 1.08-.575c.206-.08.413-.148.625-.207a4.23 4.23 0 0 1 1.387-.148l.238-1.852a3.804 3.804 0 0 0-1.209.109ZM26.576 33.76a.908.908 0 0 1-.773-.315 1.687 1.687 0 0 1-.218-1.044l.04-4.058a4.706 4.706 0 0 0-.159-1.26 3.08 3.08 0 0 0-.476-1.005 2.68 2.68 0 0 0-.822-.729 4.21 4.21 0 0 0-1.199-.453 7.112 7.112 0 0 0-1.566-.157c-.417 0-.834.026-1.248.078a8.627 8.627 0 0 0-1.16.227c-.353.095-.7.21-1.04.345l-.238 1.674a11.715 11.715 0 0 1 1.804-.492c.271-.052.546-.088.822-.108.27-.02.538-.03.803-.03.404-.009.808.038 1.199.138.286.07.548.213.763.413.19.195.328.436.396.7.085.324.125.659.12.994l-.003.493-2.317.156a6.19 6.19 0 0 0-2.298.512 3.29 3.29 0 0 0-1.358 1.093 2.535 2.535 0 0 0-.446 1.448c-.004.484.116.962.347 1.389.242.438.607.797 1.05 1.034a3.55 3.55 0 0 0 1.754.394 4.59 4.59 0 0 0 1.675-.276c.463-.18.887-.448 1.248-.788.137-.13.267-.268.39-.413.038.204.111.4.215.58.176.302.448.538.773.67.358.144.742.214 1.13.207.118 0 .234-.003.346-.01.11-.006.22-.023.327-.049.106-.026.201-.05.287-.069.078-.017.154-.04.228-.069l.218-1.32c-.11.038-.222.064-.337.08-.092.012-.184.019-.277.02Zm-2.97-1.197c-.101.113-.212.217-.33.31a3.821 3.821 0 0 1-.694.434 3.13 3.13 0 0 1-.773.256 4.39 4.39 0 0 1-.842.079 2.25 2.25 0 0 1-.942-.177 1.29 1.29 0 0 1-.584-.503 1.463 1.463 0 0 1-.198-.778c-.02-.328.071-.653.257-.925.216-.25.508-.424.832-.493a6.08 6.08 0 0 1 1.546-.157h1.736l-.009 1.954ZM34.037 20.287a6.488 6.488 0 0 0-1.298-.118 4.012 4.012 0 0 0-1.268.197 2.75 2.75 0 0 0-1.04.62 2.888 2.888 0 0 0-.694 1.054 4.09 4.09 0 0 0-.248 1.497v1.419h-1.486v1.536h1.486v8.51h2.021v-8.51h2.775v-1.536H31.51V23.32a1.837 1.837 0 0 1 .108-.66c.065-.179.17-.34.307-.473a1.21 1.21 0 0 1 .506-.276c.222-.061.453-.09.683-.088.16 0 .31.007.456.02.147.012.288.032.427.058.139.027.27.053.396.08.112.021.221.054.327.098l-.08-1.635a4.777 4.777 0 0 0-.604-.158ZM36.246 35.001h2.022V24.76l-2.022.295v9.947ZM37.98 20.632a1.29 1.29 0 0 0-.683-.187 1.339 1.339 0 0 0-.694.187c-.206.12-.38.29-.505.492-.126.205-.191.44-.188.68-.003.243.063.481.188.69.121.205.296.375.505.492.212.118.451.18.694.177.24.003.476-.058.684-.177.203-.118.371-.288.485-.493.12-.21.18-.448.178-.69a1.323 1.323 0 0 0-.178-.679 1.396 1.396 0 0 0-.486-.492ZM49.98 24.956h-2.477l-3.391 3.703h-.731v-8.53l-2.022.296v14.576h2.022v-4.826h.033l4.049 4.826h2.616l-4.807-5.384 4.708-4.662ZM55.676 29.565l4.708-4.661h-2.477l-3.39 3.703h-.732v-8.529l-2.021.296V34.95h2.021v-4.826h.033l4.05 4.826h2.615l-4.807-5.385Z"/></svg>
